img/club-text-header.svg

<svg width="512" height="221" viewBox="0 0 512 221" fill="none" xmlns="http://www.w3.org/2000/svg">
<path d="M101.26 120.831C101.239 119.691 100.304 118.546 99.1915 118.792C97.0656 119.158 89.8616 121.952 86.7684 121.862C85.0529 121.837 83.324 121.699 83.3225 119.759C83.3076 117.705 84.6246 116.294 85.3845 114.034C86.3888 110.947 88.9042 109.051 87.8552 105.978C86.8063 102.906 84.7115 100.642 80.8835 101.096C76.0422 101.669 69.0515 106.265 69.4175 108.391C69.4975 109.066 69.5509 109.516 70.2531 109.662C72.0219 110.137 75.5357 106.067 78.0127 105.774C79.1519 105.753 81.8806 105.658 82.3059 107.321C82.7444 109.095 77.8234 117.67 78.1434 120.372C78.4235 122.736 79.9036 126.557 85.6455 125.877C89.8113 125.383 101.347 122.533 101.26 120.831ZM106.799 73.1375C106.698 71.3227 106.174 69.7865 104.345 69.7747C102.18 69.8029 90.8928 77.6474 86.8945 80.5185C79.4209 85.8563 74.1057 90.1392 68.3593 93.6741C70.0584 89.7053 73.9633 86.0461 76.9068 81.0166C82.0397 72.3027 87.9843 59.8393 87.4524 57.2764C86.9871 55.2765 85.7471 53.4825 83.7206 53.7226C80.7933 54.0693 54.4051 70.3243 44.1968 76.671C22.7935 89.7096 15.8028 94.3052 9.62691 99.0326C6.68782 101.207 5.39755 102.844 5.51168 104.772C5.67915 107.149 8.11017 107.432 10.1368 107.192C12.7129 106.773 11.6832 102.899 13.5498 101.308C18.428 97.191 34.0316 87.2368 46.5968 79.5834C60.7575 70.9418 78.361 60.5225 79.2617 60.4158C80.7253 60.2424 80.5268 60.4943 81.3949 61.0764C78.8472 72.3383 68.0821 86.5144 59.8827 95.3632C48.5531 107.665 26.741 123.036 27.7041 126.347C28.0893 127.671 29.0967 128.465 30.4744 128.53C31.9647 128.582 36.4785 124.28 43.8721 118.266C50.4184 112.81 59.52 105.795 66.2322 100.776C79.3455 91.0028 95.146 78.8561 100.509 75.9375C100.503 76.8516 100.113 78.3819 100.432 79.1434C100.844 80.6929 102.143 82.0232 103.931 81.6972C105.719 81.3713 107.054 77.2173 106.799 73.1375Z" fill="white"/>
<path d="M181.856 95.7572C182.06 94.5913 180.616 93.9632 179.841 94.1691C178.278 94.4684 173.759 99.6847 168.02 104.246C163.836 107.482 158.58 111.301 154.527 111.781C148.447 112.501 143.557 109.77 143.104 105.942C142.744 102.902 145.337 99.7403 148.222 95.1745C149.968 92.5701 152.946 88.7924 153.116 86.3747C153.181 84.9969 151.552 84.7333 150.174 84.6682C147.081 84.5779 144.179 91.8858 141.757 94.5702C137.607 99.0576 132.742 103.287 129.42 106.078C126.408 108.604 123.27 111.031 120.179 112.881C114.108 116.569 110.413 118.148 108.724 118.348C107.373 118.508 105.79 117.668 105.729 116.191C105.642 114.489 106.812 111.839 108.108 109.288C108.935 107.591 110.769 106.689 110.807 105.086C110.826 104.285 110.044 103.464 109.243 103.445C105.109 103.249 101.368 112.141 101.477 116.923C101.58 120.679 103.913 123.028 109.205 122.401C112.357 122.028 118.269 118.93 123.678 115.435C129.609 111.536 135.619 106.371 136.877 105.423C136.759 106.351 137.634 107.959 139.013 109.965C141.328 113.116 145.748 116.703 154.755 115.636C160.385 114.969 167.15 110.4 171.691 106.323C176.132 102.372 181.493 97.5127 181.856 95.7572Z" fill="white"/>
<path d="M239.785 89.8088C239.719 89.2458 238.744 87.7629 237.744 87.9956C235.731 88.3482 225.505 97.437 220.613 101.441C216.555 104.776 210.288 110.656 207.6 113.03C207.618 110.287 208.529 106.412 209.499 102.073C210.351 98.6611 211.752 95.0701 212.936 92.5324C214.841 89.3384 217.614 86.7266 220.135 83.9162C222.161 81.7355 227.211 77.1415 227.163 75.7771C227.089 74.1875 225.214 72.8113 223.637 72.998C222.286 73.158 217.918 76.758 215.324 79.9195C212.617 83.0943 211.321 85.6453 209.303 88.8526C203.156 95.7459 191.642 101.676 185.112 102.45C183.761 102.61 181.952 101.797 181.891 100.32C181.589 94.8754 189.441 89.8354 189.141 88.2725C188.869 86.9348 187.802 86.6045 186.424 86.5393C184.583 86.4149 175.761 95.7941 176.911 100.681C177.841 104.681 178.076 107.622 186.069 106.675C190.911 106.101 200.458 101.888 205.562 97.7443C205.088 101.454 203.045 106.377 202.59 109.285C201.74 114.637 199.863 119.997 198.866 124.111C195.253 128.306 188.649 136.167 181.265 145.148C173.655 154.155 164.867 164.786 165.707 171.879C166.254 176.495 170.296 177.843 173.461 177.582C178.667 177.194 184.375 166.585 189.674 158.308C196.904 147.063 200.548 131.561 202.816 126.611C205.826 122.145 213.615 113.687 221.849 106.09C226.164 102.04 239.985 91.4976 239.785 89.8088ZM195.338 134.804C193.408 139.713 188.727 150.315 185.38 156.762C182.047 163.322 175.266 172.573 172.676 172.88C172.001 172.96 170.444 172.345 170.238 171.571C169.553 168.683 177.003 158.325 182.58 150.472C187.079 144.116 192.929 137.601 195.338 134.804Z" fill="white"/>
<path d="M352.532 17.6575C352.863 16.5909 347.895 17.0651 342.716 17.6786C338.776 18.1453 334.087 19.0432 330.61 19.5692C323.206 20.6746 307.968 24.0778 303.26 25.7772C297.016 28.001 290.919 31.4632 288.953 33.1803C287.086 34.7714 282.935 37.3181 275.353 55.2272C272.483 61.8463 270.292 72.2667 264.518 82.3124C260.834 88.7997 254.759 95.3419 252.337 98.0263C249.829 100.949 246.128 103.443 243.976 103.583C241.26 103.791 239.689 101.123 239.607 98.5066C239.472 95.4401 243.07 89.1913 247.332 84.6906C249.854 81.8803 253.726 78.9099 255.163 78.5114C256.375 78.1395 257.17 79.0728 258.191 79.9794C259.072 80.6741 259.021 82.1645 260.16 82.1437C261.299 82.1229 262.232 81.3274 262.311 80.0622C262.567 77.406 258.411 74.1307 255.358 74.3782C253.206 74.519 247.4 78.5175 243.436 82.6404C238.479 88.0226 234.14 95.7291 234.905 99.2919C235.955 104.305 239.218 108.714 244.708 107.835C248.847 107.116 251.376 105.333 255.042 101.588C259.602 96.7091 264.194 91.1417 267.521 85.4959C273.223 75.8013 276.427 65.2609 280.241 56.0182C282.754 50.2405 286.178 42.5281 291.009 37.0467C295.464 33.2082 296.153 33.2408 305.091 29.6703C311.633 27.0687 336.653 22.3926 342.945 21.5332C346.984 20.9405 347.11 21.0398 350.322 20.2027C351.646 19.8175 352.215 18.8368 352.532 17.6575Z" fill="white"/>
<path d="M333.259 77.5951C333.013 76.4825 332.37 75.8737 331.271 76.2322C330.172 76.5908 321.886 85.6781 318.365 88.721C314.632 91.9032 311.05 93.4692 309.136 93.6959C305.758 94.096 304.247 92.905 303.794 89.077C303.287 84.7986 306.291 81.2461 309.373 74.4877C310.371 72.3145 312.144 69.9352 312.427 67.5042C312.591 66.0006 310.637 65.8895 309.286 66.0495C307.035 66.3163 304.746 70.1266 303.396 72.2273C302.345 73.9502 301.108 76.0375 300.016 77.4227C298.592 77.9338 295.121 77.5458 293.432 77.7459C290.618 78.0793 289.757 78.5237 287.128 78.4927C288.04 76.5579 289.197 73.795 288.493 71.7092C288.135 70.61 287.438 69.5508 286.299 69.5716C282.53 69.5613 278.389 75.0753 275.768 78.0115C269.111 85.4218 262.43 87.8115 263.393 91.1225C263.585 91.7847 264.255 92.6187 264.93 92.5387C267.718 91.9801 274.574 84.318 278.162 81.838C277.482 84.7727 274.976 89.6363 273.368 92.4525C271.761 95.2688 267.976 99.9413 269.283 102.298C269.588 102.947 270.449 102.503 271.138 102.535C273.992 102.54 278.351 94.0316 280.242 90.725C282.061 87.7695 283.146 85.3577 284.396 83.3829C286.098 83.2955 290.197 82.2391 292.899 81.919C294.701 81.7057 297.456 81.8359 299.483 81.5959C299.179 82.8877 298.287 85.9617 298.615 89.6904C299.135 94.0814 301.311 98.9611 308.292 98.1343C311.669 97.7342 316.635 95.3193 321.387 91.103C325.319 87.669 333.671 79.1446 333.259 77.5951Z" fill="white"/>
<path d="M405.352 69.5123C405.192 68.1612 404.814 67.8635 403.562 67.8976C401.635 68.0117 393.363 77.2116 385.809 81.8739C381.235 84.6991 376.548 87.5376 372.183 88.2829C369.72 88.6889 368.4 86.2194 368.352 84.855C368.357 82.0003 369.626 79.2241 371.842 75.7649C373.49 73.2864 378.832 69.2286 378.645 67.6524C378.538 66.7517 377.1 65.2096 375.424 65.5222C374.411 65.6422 372.729 66.8689 371.016 68.7844C368.891 71.0911 366.635 74.2125 365.179 75.4125C363.769 76.0362 362.232 76.5607 360.107 76.9267C358.107 77.3919 355.908 78.109 354.08 78.0972C352.92 76.9787 352.052 76.3965 350.608 75.7685C349.037 75.0411 347.692 74.2871 345.526 74.3153L347.576 70.4191C349.21 67.8281 351.129 64.7466 350.915 62.9452C350.755 61.5942 349.132 60.4165 347.695 60.815C346.258 61.2136 340.911 68.1261 337.728 71.129C334.869 73.9794 326.905 79.0327 326.727 80.4238C326.563 81.9275 327.345 82.7481 328.849 82.9125C330.226 82.9777 331.715 81.0888 333.708 79.597C335.078 78.6355 336.389 78.1377 337.547 77.3155C335.007 80.9272 329.435 87.8664 329.756 90.5685C330.062 93.158 332.489 96.2956 336.754 95.6763C342.257 94.9102 343.899 93.3458 347.307 90.3162C350.094 87.8169 351.814 84.9873 352.866 83.2644C355.064 82.5473 358.136 81.4984 359.461 81.1132C361.123 80.688 362.15 80.6805 363.686 80.1561C362.714 82.5545 362.927 84.3559 363.002 85.9455C363.064 89.3631 365.962 93.5866 371.366 92.9465C377.22 92.253 383.318 88.7907 389.534 84.4011C395.326 80.29 405.552 71.2011 405.352 69.5123ZM346.996 81.9046C347.196 83.5935 345.522 85.8468 343.782 87.5371C341.942 89.3534 338.764 91.4423 337.512 91.4764C336.823 91.4438 335.386 91.8424 335.074 90.1669C334.788 88.7166 337.05 84.6811 339.386 82.2352C340.405 81.2012 341.424 80.1671 342.02 79.4115C342.51 79.696 344.14 79.9596 345.206 80.2899C346.035 80.5343 346.903 81.1165 346.996 81.9046Z" fill="white"/>
<path d="M455.735 14.224C455.042 8.36942 447.867 6.5934 442.35 7.24687C439.648 7.56693 429.477 10.3701 421.942 14.2309C414.322 18.3302 404.028 24.9154 404.295 27.1672C404.441 28.4057 405.435 29.0871 406.323 28.8678C407.548 28.6085 417.159 21.0767 424.859 17.6529C431.249 14.7269 439.056 12.2038 441.871 11.8704C444.798 11.5237 450.858 11.605 451.218 14.6448C451.605 17.9099 449.011 21.0713 447.06 24.8416C444.554 29.7052 438.809 35.1807 438.87 36.6577C438.99 37.671 440.249 38.6635 441.262 38.5435C442.699 38.1449 447.179 32.591 449.964 28.151C453.033 23.2208 456.109 17.3765 455.735 14.224ZM463.556 61.9331C463.323 60.9331 462.873 60.9865 461.972 61.0931C460.621 61.2532 456.477 64.8265 451.718 68.0161C446.958 71.2058 442.41 74.2562 438.655 74.3585C437.065 74.4326 435.428 73.1423 435.255 71.6787C435.161 70.8906 435.318 68.3603 436.204 66.2004C437.203 64.0271 438.745 62.5886 438.558 61.0123C438.411 59.7739 438.391 58.6347 436.139 58.9014C434.45 59.1014 427.27 66.9161 421.445 71.7161C415.931 76.2509 409.644 82.9323 407.015 82.9013C406.438 82.8554 406.372 82.2925 406.305 81.7295C406.065 79.7029 409.524 73.2423 410.847 70.9165C412.95 67.4706 417.636 62.6914 417.442 60.0885C417.282 58.7375 415.95 58.0961 414.599 58.2561C412.685 58.4828 410.158 62.2072 407.173 64.9583C397.496 73.8679 395.012 73.1346 395.399 76.3997C395.479 77.0752 396.221 77.5581 396.837 77.9418C398.764 77.8277 401.087 75.2692 404.847 72.3121C403.677 74.9624 401.43 81.0512 401.372 83.4555C401.314 85.8599 403.945 87.8316 406.449 87.7634C409.178 87.6685 418.199 79.9781 423.091 75.9737C425.255 74.0048 428.254 71.3663 430.616 69.1456C430.565 70.6359 430.593 72.8017 430.951 73.901C431.96 76.6356 435.784 79.0369 438.486 78.7169C444.566 77.9967 451.53 73.1759 455.938 69.9137C458.977 67.613 463.868 63.6085 463.556 61.9331Z" fill="white"/>
<path d="M364.887 123.717C363.02 107.955 349.229 107.191 333.467 109.058C318.38 110.845 300.342 116.635 284.968 123.708C271.316 129.891 246.92 144.655 247.154 147.595C247.221 148.158 248.102 148.853 248.665 148.786C249.904 148.639 269.385 134.801 287.593 126.593C298.975 121.478 316.608 115.165 335.073 112.978C341.828 112.177 358.371 109.19 360.278 125.29C361.785 138.013 354.338 152.253 351.387 156.256C350.546 155.899 346.53 152.835 343.702 153.056C340.761 153.29 338.099 153.948 332.09 161.053C327.783 166.13 321.562 173.374 322.5 178.401C323.451 183.54 325.413 184.677 331.155 183.997C338.473 183.13 347.81 172.32 354.279 161.393C361.913 148.73 366.14 134.3 364.887 123.717ZM347.272 161.995C346.506 165.168 344.561 168.024 341.756 171.325C337.62 175.925 332.278 179.983 330.648 179.719C329.37 179.528 327.19 179.443 327.256 178.066C327.3 175.549 330.257 170.632 333.578 165.9C336.317 162.036 341.46 158.231 343.693 158.765C345.462 159.241 346.509 160.373 347.272 161.995Z" fill="white"/>
<path d="M398.783 154.409C398.169 149.23 393.775 145.869 387.47 146.616C383.868 147.042 378.703 149.709 373.573 153.628C372.329 154.688 371.317 156.749 370.06 157.697C369.046 157.817 367.569 157.878 366.523 158.687C363.386 161.114 362.005 165.844 362.226 168.672C362.548 173.315 366.327 178.233 374.46 177.498C379.202 177.05 386.406 174.256 391.489 168.973C395.863 164.459 399.33 159.025 398.783 154.409ZM394.424 154.24C395.011 159.194 391.114 163.88 387.592 166.923C383.548 170.37 378.596 172.898 375.106 173.311C371.053 173.791 367.13 171.516 366.77 168.476C366.663 167.575 367.805 162.759 370.692 162.075C372.03 161.802 372.52 162.087 373.619 161.728C375.791 160.786 375.836 158.269 377.576 156.578C380.932 153.098 384.825 151.267 388.441 150.953C390.931 150.772 394.011 150.75 394.424 154.24Z" fill="white"/>
<path d="M508.86 142.626C508.601 141.401 508.309 140.865 507.071 141.011C505.832 141.158 498.32 148.099 491.753 152.416C487.304 155.34 482.862 157.351 480.245 157.432C477.517 157.527 474.973 157.258 474.918 154.867C474.93 153.039 475.676 150.667 476.622 148.043C477.824 144.704 479.241 143.166 480.695 140.026C481.436 138.568 483.488 136.612 483.486 134.672C483.465 133.532 482.16 133.116 481.021 133.137C475.914 133.399 466.859 139.838 462.139 143.365C457.221 147.145 451.839 150.865 448.436 152.98C448.587 151.364 448.599 149.536 448.975 147.893C449.384 145.561 450.455 143.037 450.373 140.421C450.326 139.056 448.796 138.667 447.656 138.687C445.603 138.702 442.614 144.308 439.953 146.907C436.485 150.4 431.422 154.881 427.113 158.018C415.654 166.339 411.854 168.958 409.265 169.265C407.914 169.425 406.051 168.161 405.991 166.685C405.922 164.181 406.663 162.723 407.747 160.311C408.66 158.377 411.196 157.62 410.844 155.606C410.611 154.606 409.703 153.686 408.577 153.82C405.298 154.094 400.398 163.808 400.678 166.172C401.305 171.464 405.354 173.838 409.97 173.292C415.374 172.651 423.827 165.942 429.367 161.632C434.173 157.866 438.588 153.69 441.216 151.78C441.456 153.807 441.146 156.013 440.783 157.768C440.275 160.226 438.45 164.096 438.538 165.798C438.631 166.586 439.472 166.943 440.274 166.962C442.327 166.947 444.602 163.024 447.29 160.651C452.155 156.421 455.094 154.247 460.21 150.215C465.949 145.654 472.377 141.125 475.635 139.712C475.033 141.381 472.691 144.741 471.561 147.729C470.417 150.605 469.724 153.427 469.991 155.679C470.471 159.732 473.632 162.326 480.752 161.711C484.706 161.357 490.082 158.551 495.027 154.996C499.548 151.721 509.213 144.639 508.86 142.626Z" fill="white"/>
</svg>

<svg width="512" height="221" fill="none" xmlns="http://www.w3.org/2000/svg"><path d="M101.26 120.831c-.021-1.14-.956-2.285-2.069-2.039-2.125.366-9.33 3.16-12.423 3.07-1.715-.025-3.444-.163-3.445-2.103-.015-2.054 1.302-3.465 2.062-5.725 1.004-3.087 3.52-4.983 2.47-8.056-1.049-3.072-3.144-5.336-6.972-4.882-4.84.573-11.831 5.169-11.465 7.295.08.675.133 1.125.835 1.271 1.769.475 5.283-3.595 7.76-3.888 1.139-.021 3.868-.116 4.293 1.547.438 1.774-4.483 10.349-4.163 13.051.28 2.364 1.76 6.185 7.502 5.505 4.166-.494 15.702-3.344 15.615-5.046Zm5.539-47.694c-.101-1.814-.625-3.35-2.454-3.362-2.165.028-13.452 7.872-17.45 10.743-7.474 5.338-12.79 9.621-18.536 13.156 1.7-3.969 5.604-7.628 8.548-12.657 5.133-8.714 11.077-21.178 10.545-23.74-.465-2-1.705-3.794-3.731-3.554-2.928.346-29.316 16.601-39.524 22.948C22.793 89.71 15.803 94.305 9.627 99.033c-2.94 2.174-4.23 3.811-4.115 5.739.167 2.377 2.598 2.66 4.625 2.42 2.576-.419 1.546-4.293 3.413-5.884 4.878-4.117 20.482-14.071 33.047-21.725 14.16-8.641 31.764-19.06 32.665-19.167 1.463-.174 1.265.078 2.133.66-2.548 11.262-13.313 25.438-21.512 34.287-11.33 12.302-33.142 27.673-32.179 30.984.385 1.324 1.393 2.118 2.77 2.183 1.49.052 6.004-4.25 13.398-10.264 6.546-5.456 15.648-12.471 22.36-17.49 13.114-9.773 28.914-21.92 34.277-24.838-.006.914-.396 2.444-.077 3.205.412 1.55 1.711 2.88 3.499 2.554 1.788-.326 3.123-4.48 2.868-8.56ZM181.856 95.757c.204-1.166-1.24-1.794-2.015-1.588-1.563.3-6.082 5.516-11.821 10.077-4.184 3.236-9.44 7.055-13.493 7.535-6.08.72-10.97-2.011-11.423-5.839-.36-3.04 2.233-6.202 5.118-10.767 1.746-2.605 4.724-6.383 4.894-8.8.065-1.378-1.564-1.642-2.942-1.707-3.093-.09-5.995 7.218-8.417 9.902-4.15 4.488-9.015 8.717-12.337 11.508-3.012 2.526-6.15 4.953-9.241 6.803-6.071 3.688-9.766 5.267-11.455 5.467-1.351.16-2.934-.68-2.995-2.157-.087-1.702 1.083-4.352 2.379-6.903.827-1.697 2.661-2.599 2.699-4.202.019-.801-.763-1.622-1.564-1.641-4.134-.196-7.875 8.696-7.766 13.478.103 3.756 2.436 6.105 7.728 5.478 3.152-.373 9.064-3.471 14.473-6.966 5.931-3.899 11.941-9.064 13.199-10.012-.118.928.757 2.536 2.136 4.542 2.315 3.151 6.735 6.738 15.742 5.671 5.63-.667 12.395-5.236 16.936-9.313 4.441-3.951 9.802-8.81 10.165-10.566Z" fill="#fff"/><path d="M239.785 89.809c-.066-.563-1.041-2.046-2.041-1.813-2.013.352-12.239 9.441-17.131 13.445-4.058 3.335-10.325 9.215-13.013 11.589.018-2.743.929-6.618 1.899-10.957.852-3.412 2.253-7.003 3.437-9.54 1.905-3.195 4.678-5.806 7.199-8.617 2.026-2.18 7.076-6.775 7.028-8.139-.074-1.59-1.949-2.966-3.526-2.779-1.351.16-5.719 3.76-8.313 6.921-2.707 3.175-4.003 5.726-6.021 8.934-6.147 6.893-17.661 12.823-24.191 13.597-1.351.16-3.16-.653-3.221-2.13-.302-5.445 7.55-10.485 7.25-12.047-.272-1.338-1.339-1.668-2.717-1.734-1.841-.124-10.663 9.255-9.513 14.142.93 4 1.165 6.941 9.158 5.994 4.842-.574 14.389-4.787 19.493-8.93-.474 3.709-2.517 8.632-2.972 11.54-.85 5.352-2.727 10.712-3.724 14.826-3.613 4.195-10.217 12.056-17.601 21.037-7.61 9.007-16.398 19.638-15.558 26.731.547 4.616 4.589 5.964 7.754 5.703 5.206-.388 10.914-10.997 16.213-19.274 7.23-11.245 10.874-26.747 13.142-31.697 3.01-4.466 10.799-12.924 19.033-20.521 4.315-4.05 18.136-14.592 17.936-16.281Zm-44.447 44.995c-1.93 4.909-6.611 15.511-9.958 21.958-3.333 6.56-10.114 15.811-12.704 16.118-.675.08-2.232-.535-2.438-1.309-.685-2.888 6.765-13.246 12.342-21.099 4.499-6.356 10.349-12.871 12.758-15.668Z" fill="#fff"/><path d="M352.532 17.657c.331-1.066-4.637-.592-9.816.022-3.94.466-8.629 1.364-12.106 1.89-7.404 1.106-22.642 4.509-27.35 6.208-6.244 2.224-12.341 5.686-14.307 7.403-1.867 1.591-6.018 4.138-13.6 22.047-2.87 6.62-5.061 17.04-10.835 27.085-3.684 6.488-9.759 13.03-12.181 15.714-2.508 2.923-6.209 5.417-8.361 5.557-2.716.208-4.287-2.46-4.369-5.076-.135-3.067 3.463-9.316 7.725-13.816 2.522-2.81 6.394-5.781 7.831-6.18 1.212-.371 2.007.562 3.028 1.468.881.695.83 2.186 1.969 2.165 1.139-.021 2.072-.817 2.151-2.082.256-2.656-3.9-5.931-6.953-5.684-2.152.141-7.958 4.14-11.922 8.262-4.957 5.383-9.296 13.09-8.531 16.652 1.05 5.013 4.313 9.422 9.803 8.543 4.139-.719 6.668-2.502 10.334-6.247 4.56-4.879 9.152-10.446 12.479-16.092 5.702-9.695 8.906-20.235 12.72-29.478 2.513-5.778 5.937-13.49 10.768-18.971 4.455-3.839 5.144-3.806 14.082-7.377 6.542-2.601 31.562-7.277 37.854-8.137 4.039-.593 4.165-.493 7.377-1.33 1.324-.386 1.893-1.366 2.21-2.546Z" fill="#fff"/><path d="M333.259 77.595c-.246-1.112-.889-1.721-1.988-1.363-1.099.359-9.385 9.446-12.906 12.489-3.733 3.182-7.315 4.748-9.229 4.975-3.378.4-4.889-.791-5.342-4.619-.507-4.278 2.497-7.83 5.579-14.59.998-2.172 2.771-4.552 3.054-6.983.164-1.503-1.79-1.615-3.141-1.455-2.251.267-4.54 4.078-5.89 6.178-1.051 1.723-2.288 3.81-3.38 5.196-1.424.51-4.895.123-6.584.323-2.814.333-3.675.778-6.304.747.912-1.935 2.069-4.698 1.365-6.784-.358-1.099-1.055-2.158-2.194-2.137-3.769-.01-7.91 5.503-10.531 8.44-6.657 7.41-13.338 9.8-12.375 13.11.192.663.862 1.497 1.537 1.417 2.788-.559 9.644-8.221 13.232-10.701-.68 2.935-3.186 7.798-4.794 10.615-1.607 2.816-5.392 7.488-4.085 9.845.305.649 1.166.205 1.855.237 2.854.005 7.213-8.503 9.104-11.81 1.819-2.956 2.904-5.367 4.154-7.342 1.702-.087 5.801-1.144 8.503-1.464 1.802-.213 4.557-.083 6.584-.323-.304 1.292-1.196 4.366-.868 8.094.52 4.391 2.696 9.271 9.677 8.444 3.377-.4 8.343-2.815 13.095-7.031 3.932-3.434 12.284-11.958 11.872-13.508Z" fill="#fff"/><path d="M405.352 69.512c-.16-1.35-.538-1.648-1.79-1.614-1.927.114-10.199 9.314-17.753 13.976-4.574 2.825-9.261 5.664-13.626 6.409-2.463.406-3.783-2.064-3.831-3.428.005-2.855 1.274-5.63 3.49-9.09 1.648-2.479 6.99-6.536 6.803-8.113-.107-.9-1.545-2.442-3.221-2.13-1.013.12-2.695 1.347-4.408 3.262-2.125 2.307-4.381 5.428-5.837 6.628-1.41.624-2.947 1.149-5.072 1.515-2 .465-4.199 1.182-6.027 1.17-1.16-1.118-2.028-1.7-3.472-2.328-1.571-.728-2.916-1.482-5.082-1.454l2.05-3.896c1.634-2.59 3.553-5.672 3.339-7.474-.16-1.35-1.783-2.529-3.22-2.13-1.437.399-6.784 7.311-9.967 10.314-2.859 2.85-10.823 7.904-11.001 9.295-.164 1.503.618 2.324 2.122 2.488 1.377.066 2.866-1.823 4.859-3.315 1.37-.962 2.681-1.46 3.839-2.281-2.54 3.611-8.112 10.55-7.791 13.252.306 2.59 2.733 5.728 6.998 5.108 5.503-.766 7.145-2.33 10.553-5.36 2.787-2.5 4.507-5.329 5.559-7.052 2.198-.717 5.27-1.766 6.595-2.15 1.662-.426 2.689-.434 4.225-.958-.972 2.398-.759 4.2-.684 5.79.062 3.417 2.96 7.64 8.364 7 5.854-.693 11.952-4.155 18.168-8.545 5.792-4.111 16.018-13.2 15.818-14.889Zm-58.356 12.393c.2 1.689-1.474 3.942-3.214 5.632-1.84 1.816-5.018 3.905-6.27 3.94-.689-.033-2.126.365-2.438-1.31-.286-1.45 1.976-5.486 4.312-7.932 1.019-1.034 2.038-2.068 2.634-2.823.49.284 2.12.548 3.186.878.829.244 1.697.826 1.79 1.615Z" fill="#fff"/><path d="M455.735 14.224c-.693-5.855-7.868-7.63-13.385-6.977-2.702.32-12.873 3.123-20.408 6.984-7.62 4.1-17.914 10.684-17.647 12.936.146 1.239 1.14 1.92 2.028 1.7 1.225-.259 10.836-7.79 18.536-11.214 6.39-2.926 14.197-5.45 17.012-5.783 2.927-.346 8.987-.265 9.347 2.775.387 3.265-2.207 6.426-4.158 10.197-2.506 4.863-8.251 10.339-8.19 11.816.12 1.013 1.379 2.005 2.392 1.886 1.437-.4 5.917-5.953 8.702-10.393 3.069-4.93 6.145-10.774 5.771-13.927Zm7.821 47.71c-.233-1-.683-.947-1.584-.84-1.351.16-5.495 3.732-10.254 6.922-4.76 3.19-9.308 6.24-13.063 6.343-1.59.074-3.227-1.217-3.4-2.68-.094-.788.063-3.319.949-5.479.999-2.173 2.541-3.611 2.354-5.188-.147-1.238-.167-2.377-2.419-2.11-1.689.2-8.869 8.014-14.694 12.814-5.514 4.535-11.801 11.216-14.43 11.185-.577-.046-.643-.608-.71-1.171-.24-2.027 3.219-8.488 4.542-10.814 2.103-3.445 6.789-8.225 6.595-10.827-.16-1.352-1.492-1.993-2.843-1.833-1.914.227-4.441 3.951-7.426 6.702-9.677 8.91-12.161 8.177-11.774 11.442.08.675.822 1.158 1.438 1.542 1.927-.114 4.25-2.673 8.01-5.63-1.17 2.65-3.417 8.74-3.475 11.144-.058 2.404 2.573 4.376 5.077 4.307 2.729-.095 11.75-7.785 16.642-11.79 2.164-1.968 5.163-4.607 7.525-6.827-.051 1.49-.023 3.656.335 4.755 1.009 2.735 4.833 5.136 7.535 4.816 6.08-.72 13.044-5.541 17.452-8.803 3.039-2.301 7.93-6.306 7.618-7.98ZM364.887 123.717c-1.867-15.762-15.658-16.526-31.42-14.659-15.087 1.787-33.125 7.577-48.499 14.65-13.652 6.183-38.048 20.947-37.814 23.887.067.563.948 1.258 1.511 1.191 1.239-.147 20.72-13.985 38.928-22.193 11.382-5.115 29.015-11.428 47.48-13.615 6.755-.801 23.298-3.788 25.205 12.312 1.507 12.723-5.94 26.963-8.891 30.966-.841-.357-4.857-3.421-7.685-3.2-2.941.234-5.603.892-11.612 7.997-4.307 5.077-10.528 12.321-9.59 17.348.951 5.139 2.913 6.276 8.655 5.596 7.318-.867 16.655-11.677 23.124-22.604 7.634-12.663 11.861-27.093 10.608-37.676Zm-17.615 38.278c-.766 3.173-2.711 6.029-5.516 9.33-4.136 4.6-9.478 8.658-11.108 8.394-1.278-.191-3.458-.276-3.392-1.653.044-2.517 3.001-7.434 6.322-12.166 2.739-3.864 7.882-7.669 10.115-7.135 1.769.476 2.816 1.608 3.579 3.23ZM398.783 154.409c-.614-5.179-5.008-8.54-11.313-7.793-3.602.426-8.767 3.093-13.897 7.012-1.244 1.06-2.256 3.121-3.513 4.069-1.014.12-2.491.181-3.537.99-3.137 2.427-4.518 7.157-4.297 9.985.322 4.643 4.101 9.561 12.234 8.826 4.742-.448 11.946-3.242 17.029-8.525 4.374-4.514 7.841-9.948 7.294-14.564Zm-4.359-.169c.587 4.954-3.31 9.64-6.832 12.683-4.044 3.447-8.996 5.975-12.486 6.388-4.053.48-7.976-1.795-8.336-4.835-.107-.901 1.035-5.717 3.922-6.401 1.338-.273 1.828.012 2.927-.347 2.172-.942 2.217-3.459 3.957-5.15 3.356-3.48 7.249-5.311 10.865-5.625 2.49-.181 5.57-.203 5.983 3.287ZM508.86 142.626c-.259-1.225-.551-1.761-1.789-1.615-1.239.147-8.751 7.088-15.318 11.405-4.449 2.924-8.891 4.935-11.508 5.016-2.728.095-5.272-.174-5.327-2.565.012-1.828.758-4.2 1.704-6.824 1.202-3.339 2.619-4.877 4.073-8.017.741-1.458 2.793-3.414 2.791-5.354-.021-1.14-1.326-1.556-2.465-1.535-5.107.262-14.162 6.701-18.882 10.228-4.918 3.78-10.3 7.5-13.703 9.615.151-1.616.163-3.444.539-5.087.409-2.332 1.48-4.856 1.398-7.472-.047-1.365-1.577-1.754-2.717-1.734-2.053.015-5.042 5.621-7.703 8.22-3.468 3.493-8.531 7.974-12.84 11.111-11.459 8.321-15.259 10.94-17.848 11.247-1.351.16-3.214-1.104-3.274-2.58-.069-2.504.672-3.962 1.756-6.374.913-1.934 3.449-2.691 3.097-4.705-.233-1-1.141-1.92-2.267-1.786-3.279.274-8.179 9.988-7.899 12.352.627 5.292 4.676 7.666 9.292 7.12 5.404-.641 13.857-7.35 19.397-11.66 4.806-3.766 9.221-7.942 11.849-9.852.24 2.027-.07 4.233-.433 5.988-.508 2.458-2.333 6.328-2.245 8.03.093.788.934 1.145 1.736 1.164 2.053-.015 4.328-3.938 7.016-6.311 4.865-4.23 7.804-6.404 12.92-10.436 5.739-4.561 12.167-9.09 15.425-10.503-.602 1.669-2.944 5.029-4.074 8.017-1.144 2.876-1.837 5.698-1.57 7.95.48 4.053 3.641 6.647 10.761 6.032 3.954-.354 9.33-3.16 14.275-6.715 4.521-3.275 14.186-10.357 13.833-12.37Z" fill="#fff"/></svg>
